img/process/icon3.svg

<svg width="24" height="25" viewBox="0 0 24 25" fill="none" xmlns="http://www.w3.org/2000/svg">
<path d="M24 6.39755V2.86814C24 1.70046 23.0537 0.750488 21.8906 0.750488H2.10938C0.946266 0.750488 0 1.70046 0 2.86814V6.39755H24ZM16.2188 3.57402H20.4375C20.8258 3.57402 21.1406 3.89006 21.1406 4.2799C21.1406 4.66974 20.8258 4.98578 20.4375 4.98578H16.2188C15.8304 4.98578 15.5156 4.66974 15.5156 4.2799C15.5156 3.89006 15.8304 3.57402 16.2188 3.57402ZM9.1875 3.57402C9.57581 3.57402 9.89062 3.89006 9.89062 4.2799C9.89062 4.66974 9.57581 4.98578 9.1875 4.98578C8.79919 4.98578 8.48438 4.66974 8.48438 4.2799C8.48438 3.89006 8.79919 3.57402 9.1875 3.57402ZM6.375 3.57402C6.76331 3.57402 7.07812 3.89006 7.07812 4.2799C7.07812 4.66974 6.76331 4.98578 6.375 4.98578C5.98669 4.98578 5.67188 4.66974 5.67188 4.2799C5.67188 3.89006 5.98669 3.57402 6.375 3.57402ZM3.5625 3.57402C3.95081 3.57402 4.26562 3.89006 4.26562 4.2799C4.26562 4.66974 3.95081 4.98578 3.5625 4.98578C3.17419 4.98578 2.85938 4.66974 2.85938 4.2799C2.85938 3.89006 3.17419 3.57402 3.5625 3.57402Z" fill="url(#paint0_linear_30_17273)"/>
<path d="M0 7.80933V22.6329C0 23.8005 0.946266 24.7505 2.10938 24.7505H21.8906C23.0537 24.7505 24 23.8005 24 22.6329V7.80933H0ZM8.22047 17.8464C8.52375 18.0899 8.57288 18.5341 8.3303 18.8385C8.08777 19.1429 7.64522 19.1923 7.34203 18.9487L3.82641 16.1252C3.47489 15.843 3.47466 15.3052 3.82641 15.0228L7.34203 12.1993C7.64513 11.9557 8.08767 12.005 8.3303 12.3095C8.57288 12.6139 8.52375 13.0581 8.22047 13.3016L5.39119 15.574L8.22047 17.8464ZM14.7556 10.9109L10.5369 20.7933C10.3839 21.1515 9.97069 21.3177 9.61364 21.164C9.25673 21.0105 9.09136 20.5954 9.24436 20.2371L13.4631 10.3548C13.6161 9.99648 14.0295 9.8305 14.3864 9.98406C14.7433 10.1376 14.9086 10.5526 14.7556 10.9109ZM20.1736 16.1252L16.658 18.9488C16.3552 19.192 15.9127 19.1434 15.6697 18.8385C15.4271 18.5341 15.4763 18.0899 15.7795 17.8464L18.6088 15.574L15.7795 13.3017C15.4763 13.0582 15.4271 12.614 15.6697 12.3096C15.9122 12.0051 16.3547 11.9558 16.658 12.1993L20.1736 15.0229C20.5251 15.3051 20.5253 15.8428 20.1736 16.1252Z" fill="url(#paint1_linear_30_17273)"/>
<defs>
<linearGradient id="paint0_linear_30_17273" x1="0" y1="3.57402" x2="24" y2="3.57402" gradientUnits="userSpaceOnUse">
<stop stop-color="#6A11CB"/>
<stop offset="1" stop-color="#2575FC"/>
</linearGradient>
<linearGradient id="paint1_linear_30_17273" x1="0" y1="16.2799" x2="24" y2="16.2799" gradientUnits="userSpaceOnUse">
<stop stop-color="#6A11CB"/>
<stop offset="1" stop-color="#2575FC"/>
</linearGradient>
</defs>
</svg>

<svg width="24" height="25" viewBox="0 0 24 25" fill="none" xmlns="http://www.w3.org/2000/svg"><path d="M24 6.398v-3.53A2.116 2.116 0 0021.89.75H2.11C.945.75 0 1.7 0 2.868v3.53h24zm-7.781-2.824h4.218c.389 0 .704.316.704.706 0 .39-.315.706-.703.706h-4.22a.705.705 0 01-.702-.706c0-.39.314-.706.703-.706zm-7.032 0c.389 0 .704.316.704.706a.705.705 0 11-1.406 0c0-.39.314-.706.703-.706zm-2.812 0c.388 0 .703.316.703.706 0 .39-.315.706-.703.706a.705.705 0 01-.703-.706c0-.39.315-.706.703-.706zm-2.813 0c.389 0 .704.316.704.706a.705.705 0 11-1.406 0c0-.39.314-.706.703-.706z" fill="url(#paint0_linear_30_17273)"/><path d="M0 7.81v14.823C0 23.8.946 24.75 2.11 24.75h19.78c1.164 0 2.11-.95 2.11-2.117V7.809H0zm8.22 10.036a.708.708 0 01.11.992.701.701 0 01-.988.11l-3.516-2.823a.708.708 0 010-1.102l3.516-2.824a.701.701 0 01.988.11.708.708 0 01-.11.993l-2.829 2.272 2.83 2.272zm6.536-6.935l-4.22 9.882a.702.702 0 01-.922.371.707.707 0 01-.37-.927l4.22-9.882a.702.702 0 01.922-.37.707.707 0 01.37.926zm5.418 5.214l-3.516 2.824a.701.701 0 01-.988-.11.708.708 0 01.11-.993l2.829-2.272-2.83-2.272a.708.708 0 01-.11-.992.701.701 0 01.989-.11l3.516 2.823a.708.708 0 010 1.102z" fill="url(#paint1_linear_30_17273)"/><defs><linearGradient id="paint0_linear_30_17273" x1="0" y1="3.574" x2="24" y2="3.574" gradientUnits="userSpaceOnUse"><stop stop-color="#6A11CB"/><stop offset="1" stop-color="#2575FC"/></linearGradient><linearGradient id="paint1_linear_30_17273" x1="0" y1="16.28" x2="24" y2="16.28" gradientUnits="userSpaceOnUse"><stop stop-color="#6A11CB"/><stop offset="1" stop-color="#2575FC"/></linearGradient></defs></svg>
